X:2025
T:the Glory of the North
A:North-West
M:C|
O:England
R:Reel
Z:Richard Robinson 
%%TUNEURL: http://www.leeds.ac.uk/music/Info/RRTuneBk/gettune/0000050c.html
%%ID:0000050c
K:D
A2|\
d2d2 def2| efde c2A2| FGAF BAGF| EFE2 D2::
A2|\
d2AF d2AF| d2FA E2E2| FGAF BAGF| EFE2 D2:|
